!!!!SEGMENT: pl-sa--239-a-vi-43--002_naumann-johann-gottlieb--synphonia-in-d-andante.krn
!!!cenid: 17xx:585
!!!COM: Naumann, Johann Gottlieb
!!!COM-rismid: pe90691
!!!CDT: 1741/04/17-1801/10/23
!!!CNT: German
!!!OPR: Synphonia in D
!!!OTL: Andante
!!!OMV: 002
!!!PDT:
!!!AGN: Secular
!!!SMS-siglum: PL-SA
!!!SMS-shelfmark: 239/A VI 43
!!!SMS-shelfwork: 001-002 M
!!!SMS-variant:
!!!SMS-altvar:
!!!NIFC-rismid: 1001035312
!!!URL-scan: http://bc.bdsandomierz.pl/dlibra/publication/1273/edition/1241/content
!!!ONB-nifc: UWAGA: części Synphonii: Allegro, Andante, Presto. UWAGA: "Tuba 1ma" and "tuba 2da"
**kern	**dynam	**kern	**dynam	**kern	**dynam	**kern	**dynam	**kern	**dynam	**kern	**kern	**kern	**kern	**kern	**kern
*part10	*part10	*part9	*	*part9	*part9	*part8	*part8	*part7	*part7	*part6	*part5	*part4	*part3	*part2	*part1
*staff11	*	*staff10	*	*staff9	*	*staff8	*	*staff7	*	*staff6	*staff5	*staff4	*staff3	*staff2	*staff1
*group4	*	*group3	*	*group3	*	*group3	*	*group3	*	*group2	*group2	*group2	*group2	*group1	*group1
*I"Fundamento	*	*I"Viola obligato	*	*	*	*I"Violino 2do	*	*I"Violino 1mo	*	*I"Tuba 2da in D	*I"Tuba 1ma in D	*I"Cornu 2do in D	*I"Cornu 1mo in D	*I"Oboi 2da	*I"Oboi 1ma
*I'bc	*	*I'vla	*	*	*	*I'vl 2	*	*I'vl 1	*	*I'tb marina 2 in D	*I'tb marina 1 in D	*I'cor 2 in D	*I'cor 1 in D	*I'ob 2	*I'ob 1
*clefF4	*	*clefC3	*	*clefC3	*	*clefG2	*	*clefG2	*	*clefG2	*clefG2	*clefG2	*clefG2	*clefG2	*clefG2
*	*	*	*	*	*	*	*	*	*	*ITrd-1c-2	*ITrd-1c-2	*ITrd6c10	*ITrd6c10	*	*
*k[f#c#g#]	*	*k[f#c#g#]	*	*k[f#c#g#]	*	*k[f#c#g#]	*	*k[f#c#g#]	*	*k[f#c#g#]	*k[f#c#g#]	*k[f#c#g#]	*k[f#c#g#]	*k[f#c#g#]	*k[f#c#g#]
*A:	*	*A:	*	*A:	*	*A:	*	*A:	*	*A:	*A:	*A:	*A:	*A:	*A:
*M4/4	*	*M4/4	*	*M4/4	*	*M4/4	*	*M4/4	*	*M4/4	*M4/4	*M4/4	*M4/4	*M4/4	*M4/4
*met(c)	*	*met(c)	*	*met(c)	*	*met(c)	*	*met(c)	*	*met(c)	*met(c)	*met(c)	*met(c)	*met(c)	*met(c)
=1	=1	=1	=1	=1	=1	=1	=1	=1	=1	=1	=1	=1	=1	=1	=1
!	!	!	!	!LO:TX:a:t=Andante	!	!	!	!	!	!	!	!	!	!	!
!	!	!	!	!LO:TX:b:t=2da	!	!	!	!	!	!	!	!	!	!	!
!	!	!	!	!LO:TX:a:t=1ma	!	!	!	!LO:TX:b:t=la mezzo voce	!	!	!	!	!	!	!
!	!	!	!	!LO:TX:a:t=Andante	!	!LO:TX:a:t=Andante	!	!LO:TX:a:t=Andante	!	!LO:TX:a:t=Tacett	!LO:TX:a:t=Andante Tacett	!LO:TX:a:t=Andante Tacett	!LO:TX:a:t=Andante Tacett	!LO:TX:a:t=Andante Tacett	!LO:TX:a:t=Tacett
!	!	!	!	!	!LO:DY:t=pn	!	!	!	!	!	!	!	!	!	!
8r	.	(8c#\	.	(8c#\	p	4.a/	p	4.a/	.	1ryy	1ryy	1ryy	1ryy	1ryy	1ryy
8AA/L	.	4e\)	.	4e\)	.	.	.	.	.	.	.	.	.	.	.
8C#/	.	.	.	.	.	.	.	.	.	.	.	.	.	.	.
8AA/J	.	8e\	.	8e\	.	32b/KLL	.	(32dd\KLL	.	.	.	.	.	.	.
.	.	.	.	.	.	16.a/JJ	.	16.cc#\JJ)	.	.	.	.	.	.	.
4E\	.	4e\	.	4e\	.	16a/LL	.	16cc#\LL	.	.	.	.	.	.	.
.	.	.	.	.	.	(16g#/	.	(16b\	.	.	.	.	.	.	.
.	.	.	.	.	.	16f#/)	.	16a#X\)	.	.	.	.	.	.	.
.	.	.	.	.	.	16g#/JJ	.	16b\JJ	.	.	.	.	.	.	.
!	!	!LO:TX:a:t=P:problem:mixed beam	!	!	!	!	!	!	!	!	!	!	!	!	!
8EE/	.	16e\LL	.	16e\LL	.	8g#/	.	8b\	.	.	.	.	.	.	.
.	.	32G#/L	.	(32B\L	.	.	.	.	.	.	.	.	.	.	.
.	.	32A/J	.	32c#\J)	.	.	.	.	.	.	.	.	.	.	.
8r	.	16B/	.	16d\	.	8r	.	8r	.	.	.	.	.	.	.
.	.	16A/JJ	.	16c#\JJ	.	.	.	.	.	.	.	.	.	.	.
=2	=2	=2	=2	=2	=2	=2	=2	=2	=2	=2	=2	=2	=2	=2	=2
8r	.	8G#/	.	8B/	.	4.g#/	.	4.b\	.	1ryy	1ryy	1ryy	1ryy	1ryy	1ryy
8E\L	.	4e\	.	4e\	.	.	.	.	.	.	.	.	.	.	.
8G#\	.	.	.	.	.	.	.	.	.	.	.	.	.	.	.
!	!	!	!	!LO:TX:a:t=P:problem:niewyraźne łuki	!	!	!	!	!	!	!	!	!	!	!
8E\J	.	[8e\	.	[8e\	.	32cc#/KLL	.	(32ee\KLL	.	.	.	.	.	.	.
.	.	.	.	.	.	16.b/JJ	.	16.dd\JJ)	.	.	.	.	.	.	.
4A\	.	4e\]	.	4e\	.	16b/LL	.	16dd\LL	.	.	.	.	.	.	.
.	.	.	.	.	.	16a/	.	(16cc#\	.	.	.	.	.	.	.
.	.	.	.	.	.	16g#/	.	16b#X\)	.	.	.	.	.	.	.
.	.	.	.	.	.	16a/JJ	.	16cc#\JJ	.	.	.	.	.	.	.
8AA/	.	16c#/LL	.	(16e\LL]	.	8a/	.	8cc#\	.	.	.	.	.	.	.
.	.	(32A/L	.	32c#\L	.	.	.	.	.	.	.	.	.	.	.
.	.	32B/J)	.	32d\J)	.	.	.	.	.	.	.	.	.	.	.
8r	.	16c#/	.	16e\	.	8r	.	8r	.	.	.	.	.	.	.
.	.	16B/JJ	.	16d\JJ	.	.	.	.	.	.	.	.	.	.	.
=3	=3	=3	=3	=3	=3	=3	=3	=3	=3	=3	=3	=3	=3	=3	=3
!LO:TX:a:t=P:problem:mixed beam	!	!	!	!	!	!	!	!	!	!	!	!	!	!	!
8AA/L	.	8A/L	f	8c#\L	f	8.ee\L	f	8.ee\L	.	1ryy	1ryy	1ryy	1ryy	1ryy	1ryy
8A\J	.	8c#/J	.	8a\J	.	.	.	.	.	.	.	.	.	.	.
.	.	.	.	.	.	32ff#\LL	.	(32ff#\LL	.	.	.	.	.	.	.
.	.	.	.	.	.	32gg#\JJJ	.	32gg#\JJJ)	.	.	.	.	.	.	.
8r	.	8r	.	8r	.	16aa\LL	.	16aa\LL	.	.	.	.	.	.	.
.	.	.	.	.	.	16ee\	.	(16ee\	.	.	.	.	.	.	.
8d\	.	16d\LL	.	8a\	.	16ff#\	.	16ff#\)	.	.	.	.	.	.	.
.	.	16f#\JJ	.	.	.	16dd\JJ	.	16dd\JJ	.	.	.	.	.	.	.
!	!	!	!	!	!	!LO:LB:g=original	!	!	!	!	!	!	!	!	!
(8c#\L	.	8e\L	.	8a\L	.	8.ee\L	.	8.ee\L	.	.	.	.	.	.	.
8A\J)	.	8c#\J	.	8a\J	.	.	.	.	.	.	.	.	.	.	.
.	.	.	.	.	.	(32ff#\LL	.	(32ff#\LL	.	.	.	.	.	.	.
.	.	.	.	.	.	32gg#\JJJ)	.	32gg#\JJJ)	.	.	.	.	.	.	.
8r	.	8r	.	8r	.	16aa\LL	.	16aa\LL	.	.	.	.	.	.	.
.	.	.	.	.	.	(16ee\	.	(16ee\	.	.	.	.	.	.	.
8d\	.	16d\LL	.	8a\	.	16ff#\)	.	16ff#\	.	.	.	.	.	.	.
.	.	16f#\JJ	.	.	.	16dd\JJ	.	16dd\JJ)	.	.	.	.	.	.	.
!	!	!	!	!	!	!	!	!LO:LB:g=original	!	!	!	!	!	!	!
=4	=4	=4	=4	=4	=4	=4	=4	=4	=4	=4	=4	=4	=4	=4	=4
4c#\	.	16e\LL	.	16a\LL	.	16ee\LL	.	16ee\LL	.	1ryy	1ryy	1ryy	1ryy	1ryy	1ryy
.	.	16a\	.	16a\	.	(16cc#\	.	(16cc#\	.	.	.	.	.	.	.
.	.	16g#\	.	16g#\	.	16b\)	.	16b\)	.	.	.	.	.	.	.
.	.	16a\JJ	.	16a\JJ	.	16a\JJ	.	16a\JJ	.	.	.	.	.	.	.
!	!	!LO:LB:g=original	!	!LO:LB:g=original	!	!	!	!	!	!	!	!	!	!	!
8G#\L	.	8b\L	.	8b\L	.	8dd\L	.	8dd\L	.	.	.	.	.	.	.
8A\J	.	16.a\L	.	16.a\L	.	16.cc#\L	.	16.cc#\L	.	.	.	.	.	.	.
.	.	32b\JJk	.	32b\JJk	.	32dd\JJk	.	32dd\JJk	.	.	.	.	.	.	.
4E\	.	(4a\	.	(4a\	.	(4cc#\	.	4cc#\	.	.	.	.	.	.	.
8EE/	.	8g#\)	.	8g#\)	.	8b\)	.	8b\	.	.	.	.	.	.	.
8r	.	8r	.	8r	.	8r	.	8r	.	.	.	.	.	.	.
=5	=5	=5	=5	=5	=5	=5	=5	=5	=5	=5	=5	=5	=5	=5	=5
8r	.	8A/L	.	8c#\L	p	4.a/	p	4.a/	p	1ryy	1ryy	1ryy	1ryy	1ryy	1ryy
8AA/L	.	8A/J	.	8c#\J	.	.	.	.	.	.	.	.	.	.	.
8C#/	.	8r	.	8r	.	.	.	.	.	.	.	.	.	.	.
8AA/J	.	8e\	.	8e\	.	32b/KLL	.	(32dd\KLL	.	.	.	.	.	.	.
.	.	.	.	.	.	16.a/JJ	.	16.cc#\JJ)	.	.	.	.	.	.	.
!LO:LB:g=original	!	!	!	!	!	!	!	!	!	!	!	!	!	!	!
!LO:TX:a:t=P:problem:mixed beam	!	!	!	!	!	!	!	!	!	!	!	!	!	!	!
8E\L	.	4e\	.	4e\	.	16a/LL	.	16cc#\LL	.	.	.	.	.	.	.
.	.	.	.	.	.	16g#/	.	(16b\	.	.	.	.	.	.	.
8EE/	.	.	.	.	.	16f#/	.	16a#X\)	.	.	.	.	.	.	.
.	.	.	.	.	.	16g#/JJ	.	16b\JJ	.	.	.	.	.	.	.
8EE/J	.	16r	.	16r	.	8g#/	.	8b\	.	.	.	.	.	.	.
.	.	32G#/LLL	.	32B/LLL	.	.	.	.	.	.	.	.	.	.	.
.	.	32A/JJJ	.	32c#/JJJ	.	.	.	.	.	.	.	.	.	.	.
8r	.	16B/LL	.	16d/LL	.	8r	.	8r	.	.	.	.	.	.	.
.	.	16A/JJ	.	16c#/JJ	.	.	.	.	.	.	.	.	.	.	.
=6	=6	=6	=6	=6	=6	=6	=6	=6	=6	=6	=6	=6	=6	=6	=6
8r	.	8B/	.	8B/	.	4.g#/	.	4.b\	.	1ryy	1ryy	1ryy	1ryy	1ryy	1ryy
8E\L	.	4e\	.	4e\	.	.	.	.	.	.	.	.	.	.	.
8G#\	.	.	.	.	.	.	.	.	.	.	.	.	.	.	.
8E\J	.	8e\	.	8e\	.	32cc#/KLL	.	(32ee\KLL	.	.	.	.	.	.	.
.	.	.	.	.	.	16.b/JJ	.	16.dd\JJ)	.	.	.	.	.	.	.
!LO:TX:a:t=P:problem:mixed beam	!	!	!	!	!	!	!	!	!	!	!	!	!	!	!
8A\L	.	4e\	.	4e\	.	16b/LL	.	16dd\LL	.	.	.	.	.	.	.
.	.	.	.	.	.	16a/	.	(16cc#\	.	.	.	.	.	.	.
8AA/	.	.	.	.	.	16g#/	.	16b#X\)	.	.	.	.	.	.	.
.	.	.	.	.	.	16a/JJ	.	16cc#\JJ	.	.	.	.	.	.	.
8AA/J	.	16r	.	16r	.	8a/	.	8cc#\	.	.	.	.	.	.	.
.	.	32A/LLL	.	32c#\LLL	.	.	.	.	.	.	.	.	.	.	.
.	.	32B/J	.	(32d\J	.	.	.	.	.	.	.	.	.	.	.
8r	.	16c#/	.	16e\)	.	8r	.	8r	.	.	.	.	.	.	.
.	.	16B/JJ	.	16d\JJ	.	.	.	.	.	.	.	.	.	.	.
!	!	!	!	!	!	!LO:LB:g=original	!	!	!	!	!	!	!	!	!
=7	=7	=7	=7	=7	=7	=7	=7	=7	=7	=7	=7	=7	=7	=7	=7
(8c#\L	.	8A/L	.	16c#\LL	.	8.ee\L	.	8.ee\L	.	1ryy	1ryy	1ryy	1ryy	1ryy	1ryy
.	.	.	.	16a\	.	.	.	.	.	.	.	.	.	.	.
8A\J)	.	8c#/J	.	16a\	.	.	.	.	.	.	.	.	.	.	.
.	.	.	.	16a\JJ	.	(32ff#\LL	.	(32ff#\LL	.	.	.	.	.	.	.
.	.	.	.	.	.	32gg#\JJJ)	.	32gg#\JJJ)	.	.	.	.	.	.	.
*	*	*	*	*tremolo	*	*	*	*	*	*	*	*	*	*	*
*	*	*	*	*tremolo	*	*	*	*	*	*	*	*	*	*	*
8r	.	16r	.	16a\LL	.	16aa\LL	.	16aa\LL	.	.	.	.	.	.	.
.	.	16c#\LL	.	16a\	.	16ee\	.	(16ee\	.	.	.	.	.	.	.
8d\	.	16d\	.	16a\	.	16ff#\	.	16ff#\)	.	.	.	.	.	.	.
.	.	16f#\JJ	.	16a\JJ	.	16dd\JJ	.	16dd\JJ	.	.	.	.	.	.	.
*	*	*	*	*Xtremolo	*	*	*	*	*	*	*	*	*	*	*
(8c#\L	.	8e\L	.	16a\LL	.	8.ee\L	.	8.ee\L	.	.	.	.	.	.	.
.	.	.	.	16a\	.	.	.	.	.	.	.	.	.	.	.
8A\J)	.	8c#\J	.	16a\	.	.	.	.	.	.	.	.	.	.	.
.	.	.	.	16a\JJ	.	(32ff#\LL	.	(32ff#\LL	.	.	.	.	.	.	.
.	.	.	.	.	.	32gg#\JJJ)	.	32gg#\JJJ)	.	.	.	.	.	.	.
*	*	*	*	*tremolo	*	*	*	*	*	*	*	*	*	*	*
8r	.	16r	.	16a\LL	.	16aa\LL	.	16aa\LL	.	.	.	.	.	.	.
.	.	16c#\LL	.	16a\	.	(16ee\	.	(16ee\	.	.	.	.	.	.	.
8d\	.	16d\	.	16a\	.	16ff#\)	.	16ff#\)	.	.	.	.	.	.	.
.	.	16f#\JJ	.	16a\JJ	.	16dd\JJ	.	16dd\JJ	.	.	.	.	.	.	.
*	*	*	*	*Xtremolo	*	*	*	*	*	*	*	*	*	*	*
*	*	*	*	*Xtremolo	*	*	*	*	*	*	*	*	*	*	*
!	!	!LO:LB:g=original	!	!LO:LB:g=original	!	!	!	!LO:LB:g=original	!	!	!	!	!	!	!
=8	=8	=8	=8	=8	=8	=8	=8	=8	=8	=8	=8	=8	=8	=8	=8
!LO:TX:a:t=P:problem:mixed beam	!	!	!	!	!	!	!	!	!	!	!	!	!	!	!
8c#\L	.	8e\L	.	8a\	.	32ee\KLL	.	32ee\KLL	.	1ryy	1ryy	1ryy	1ryy	1ryy	1ryy
.	.	.	.	.	.	16.aa\JJ	.	16.aa\JJ	.	.	.	.	.	.	.
8d\	.	8f#\	.	4a\	.	32b\KLL	.	32b\KLL	.	.	.	.	.	.	.
.	.	.	.	.	.	16.dd\JJ	.	16.dd\JJ	.	.	.	.	.	.	.
8e\	.	8e\	.	.	.	8cc#\L	.	8cc#\L	.	.	.	.	.	.	.
8E/J	.	8d\J	.	8g#\	.	8b\J	.	8b\J	.	.	.	.	.	.	.
!LO:TX:a:t=P:problem:mixed beam	!	!	!	!	!	!	!	!	!	!	!	!	!	!	!
8A\L	.	4d\	.	4g#\	.	4b\	.	4b\	.	.	.	.	.	.	.
8E\	.	.	.	.	.	.	.	.	.	.	.	.	.	.	.
8AA/J	.	8c#\	.	8a\	.	8a\	.	8a\	.	.	.	.	.	.	.
8r	.	8r	.	8r	.	8r	.	8r	.	.	.	.	.	.	.
=9	=9	=9	=9	=9	=9	=9	=9	=9	=9	=9	=9	=9	=9	=9	=9
!LO:TX:a:t=P:problem:f = for&colon;global	!	!	!	!	!	!	!	!	!	!	!	!	!	!	!
8A\	f	4A\	.	4c#\	f	16ff#\LL	f	16ff#\LL	f	1ryy	1ryy	1ryy	1ryy	1ryy	1ryy
.	.	.	.	.	.	(32aa\L	.	(32aa\L	.	.	.	.	.	.	.
.	.	.	.	.	.	32gg#\JJ)	.	32gg#\JJ)	.	.	.	.	.	.	.
8r	.	.	.	.	.	8ff#\J	.	8ff#\J	.	.	.	.	.	.	.
*	*	*Xtuplet	*	*	*	*	*	*	*	*	*	*	*	*	*
!	!	!LO:TX:a:t=P:problem:brak oznaczenia triol	!	!LO:TX:a:t=P:problem:skreślona 6 pod klamrą łukową:global	!	!	!	!	!	!	!	!	!	!	!
!	!	!	!	!LO:TUP:a	!	!	!	!	!	!	!	!	!	!	!
8F#\	.	24c#/LL	.	24c#\LL	.	16aa\LL	.	16aa\LL	.	.	.	.	.	.	.
.	.	24f#/	.	24a\	.	.	.	.	.	.	.	.	.	.	.
.	.	.	.	.	.	(32ccc#\L	.	(32ccc#\L	.	.	.	.	.	.	.
.	.	24g#/JJ	.	24b\	.	.	.	.	.	.	.	.	.	.	.
.	.	.	.	.	.	32bb\JJ)	.	32bb\JJ)	.	.	.	.	.	.	.
8r	.	24a\LL	.	24cc#\	.	8aa\J	.	8aa\J	.	.	.	.	.	.	.
.	.	24a\	.	24cc#\	.	.	.	.	.	.	.	.	.	.	.
.	.	24a\JJ	.	24cc#\JJ	.	.	.	.	.	.	.	.	.	.	.
8G#\	.	4a\	.	4b\	.	16ee\LL	.	16ee\LL	.	.	.	.	.	.	.
.	.	.	.	.	.	(32gg#\L	.	(32gg#\L	.	.	.	.	.	.	.
.	.	.	.	.	.	32ff#\JJ)	.	32ff#\JJ)	.	.	.	.	.	.	.
8r	.	.	.	.	.	8ee\J	.	8ee\J	.	.	.	.	.	.	.
*	*	*tuplet	*	*	*	*	*	*	*	*	*	*	*	*	*
!	!	!LO:TX:a:t=P:problem:skreślona 6 pod klamrą łukową:global	!	!LO:TUP:a	!	!	!	!	!	!	!	!	!	!	!
!	!	!LO:TUP:a	!	!	!	!	!	!	!	!	!	!	!	!	!
8E\	.	24g#\LL	.	24b\LL	.	16gg#\LL	.	16gg#\LL	.	.	.	.	.	.	.
.	.	24e\	.	24g#\	.	.	.	.	.	.	.	.	.	.	.
.	.	.	.	.	.	(32bb\L	.	(32bb\L	.	.	.	.	.	.	.
.	.	24f#\	.	24a\	.	.	.	.	.	.	.	.	.	.	.
.	.	.	.	.	.	32aa\JJ)	.	32aa\JJ)	.	.	.	.	.	.	.
8r	.	24g#\	.	24b\	.	8gg#\J	.	8gg#\J	.	.	.	.	.	.	.
.	.	24g#\	.	24b\	.	.	.	.	.	.	.	.	.	.	.
.	.	24g#\JJ	.	24b\JJ	.	.	.	.	.	.	.	.	.	.	.
!	!	!	!	!	!	!LO:LB:g=original	!	!	!	!	!	!	!	!	!
=10	=10	=10	=10	=10	=10	=10	=10	=10	=10	=10	=10	=10	=10	=10	=10
*	*	*Xtuplet	*	*Xtuplet	*	*	*	*	*	*	*	*	*	*	*
!LO:TX:a:t=P:problem:mixed beam	!	!LO:TX:a:t=P:problem:brak oznaczenia triol	!	!LO:TX:a:t=P:problem:brak oznaczenia triol	!	!LO:TX:a:t=P:problem:triola pod klamrą łukową	!	!LO:TX:a:t=P:problem:triola pod klamrą łukową	!	!	!	!	!	!	!
!	!	!	!	!	!	!LO:TUP:a	!	!LO:TUP:a	!	!	!	!	!	!	!
8D#X/L	.	8f#\L	.	8a\L	.	24b\LL	.	24b\LL	.	1ryy	1ryy	1ryy	1ryy	1ryy	1ryy
.	.	.	.	.	.	24dd#X\	.	24dd#X\	.	.	.	.	.	.	.
.	.	.	.	.	.	24ff#\JJ	.	24ff#\JJ	.	.	.	.	.	.	.
!	!	!	!	!	!	!LO:TX:a:t=P:problem:brak oznaczenia trioli	!	!LO:TX:a:t=P:problem:brak oznaczenia trioli	!	!	!	!	!	!	!
*	*	*	*	*	*	*Xtuplet	*	*Xtuplet	*	*	*	*	*	*	*
!	!	!	!	!	!	!LO:TX:a:t=P:problem:brak oznaczenia trioli	!	!LO:TX:a:t=P:problem:brak oznaczenia trioli	!	!	!	!	!	!	!
8BB/	.	24f#\L	.	24f#\L	.	24aa`\LL	.	24aa'\LL	.	.	.	.	.	.	.
.	.	24e\	.	24e\	.	24gg#`\	.	24gg#'\	.	.	.	.	.	.	.
.	.	24d#X\JJ	.	24d#X\JJ	.	24ff#`\JJ	.	24ff#'\JJ	.	.	.	.	.	.	.
*	*	*	*	*	*	*tuplet	*	*tuplet	*	*	*	*	*	*	*
!	!	!	!	!	!	!	!	!LO:TX:a:t=P:problem:triola pod klamrą łukową	!	!	!	!	!	!	!
!	!	!	!	!	!	!LO:TUP:a	!	!LO:TUP:a	!	!	!	!	!	!	!
8G#\	.	8e\L	.	8e\L	.	24b\LL	.	24b\LL	.	.	.	.	.	.	.
.	.	.	.	.	.	24ee\	.	24ee\	.	.	.	.	.	.	.
.	.	.	.	.	.	24gg#\JJ	.	24gg#\JJ	.	.	.	.	.	.	.
*	*	*	*	*	*	*Xtuplet	*	*Xtuplet	*	*	*	*	*	*	*
!	!	!	!	!	!	!LO:TX:a:t=P:problem:brak oznaczenia trioli	!	!LO:TX:a:t=P:problem:brak oznaczenia trioli	!	!	!	!	!	!	!
8E\J	.	24g#\L	.	24g#\L	.	24bb`\LL	.	24bb'\LL	.	.	.	.	.	.	.
.	.	24f#\	.	24f#\	.	24aa`\	.	24aa'\	.	.	.	.	.	.	.
.	.	24e\JJ	.	24e\JJ	.	24gg#`\JJ	.	24gg#'\JJ	.	.	.	.	.	.	.
!LO:LB:g=original	!	!	!	!	!	!	!	!	!	!	!	!	!	!	!
4B\	.	4e\	.	(4e\	.	4gg#\	.	(4gg#\	.	.	.	.	.	.	.
8BB/	.	8d#X\	.	8d#X\)	.	8ff#\	.	8ff#\)	.	.	.	.	.	.	.
8r	.	8r	.	8r	.	8r	.	8r	.	.	.	.	.	.	.
=11	=11	=11	=11	=11	=11	=11	=11	=11	=11	=11	=11	=11	=11	=11	=11
8r	.	8e\L	.	8g#\L	.	4.ee\	p	4.ee\	p	1ryy	1ryy	1ryy	1ryy	1ryy	1ryy
!	!LO:DY:t=p.	!	!	!	!	!	!	!	!	!	!	!	!	!	!
8E\L	p	8g#\J	.	8b\J	.	.	.	.	.	.	.	.	.	.	.
8G#\	.	8r	.	8r	.	.	.	.	.	.	.	.	.	.	.
8E\J	.	8g#\	.	8b\	.	32ccc#\KLL	.	32ccc#\KLL	.	.	.	.	.	.	.
.	.	.	.	.	.	16.bb\JJ	.	16.bb\JJ	.	.	.	.	.	.	.
!	!	!	!	!	!	!	!	!LO:LB:g=original	!	!	!	!	!	!	!
8F#\	f	8r	.	8r	.	(16aa\LL	.	16aa\LL	.	.	.	.	.	.	.
.	.	.	.	.	.	16ff#\)	.	16ff#\	.	.	.	.	.	.	.
8r	.	8f#\	.	8a\	.	16dd#X`\	.	16dd#X\	.	.	.	.	.	.	.
.	.	.	.	.	.	16b`\JJ	.	16b\JJ	.	.	.	.	.	.	.
!	!LO:DY:t=pi	!	!	!	!	!	!	!	!	!	!	!	!	!	!
4BB/	p	16f#\LL	.	16a\LL	.	8a/	.	8a/	.	.	.	.	.	.	.
.	.	32e\L	.	32g#\L	.	.	.	.	.	.	.	.	.	.	.
.	.	32f#\J	.	32a\J	.	.	.	.	.	.	.	.	.	.	.
.	.	16g#\	.	16b\	.	8r	.	8r	.	.	.	.	.	.	.
.	.	16f#\JJ	.	16a\JJ	.	.	.	.	.	.	.	.	.	.	.
!	!	!LO:LB:g=original	!	!LO:LB:g=original	!	!	!	!	!	!	!	!	!	!	!
=12	=12	=12	=12	=12	=12	=12	=12	=12	=12	=12	=12	=12	=12	=12	=12
8r	.	8e\L	.	8g#\L	.	4.ee\	.	4.ee\	.	1ryy	1ryy	1ryy	1ryy	1ryy	1ryy
!	!LO:DY:t=pn	!	!	!	!	!	!	!	!	!	!	!	!	!	!
8E\L	p	8g#\J	.	8b\J	.	.	.	.	.	.	.	.	.	.	.
8G#\	.	8r	.	8r	.	.	.	.	.	.	.	.	.	.	.
8E\J	.	8g#\	.	8b\	.	32ccc#\KLL	.	32ccc#\KLL	.	.	.	.	.	.	.
.	.	.	.	.	.	16.bb\JJ	.	16.bb\JJ	.	.	.	.	.	.	.
8F#\	f	8r	.	8r	.	(16aa\LL	.	16aa\LL	.	.	.	.	.	.	.
.	.	.	.	.	.	16ff#\)	.	16ff#\	.	.	.	.	.	.	.
8r	.	8f#\	.	8a\	.	16dd#X`\	.	16dd#X\	.	.	.	.	.	.	.
.	.	.	.	.	.	16b`\JJ	.	16b\JJ	.	.	.	.	.	.	.
!	!LO:DY:t=pa	!	!	!	!	!	!	!	!	!	!	!	!	!	!
4BB/	p	16f#\LL	.	16a\LL	.	8a/	.	8a/	.	.	.	.	.	.	.
.	.	(32g#\L	.	(32b\L	.	.	.	.	.	.	.	.	.	.	.
.	.	32f#\J)	.	32a\J)	.	.	.	.	.	.	.	.	.	.	.
.	.	16e\	.	16g#\	.	8r	.	8r	.	.	.	.	.	.	.
.	.	16d#X\JJ	.	16f#\JJ	.	.	.	.	.	.	.	.	.	.	.
=13	=13	=13	=13	=13	=13	=13	=13	=13	=13	=13	=13	=13	=13	=13	=13
8r	.	8e\L	.	8g#\L	.	4.ee\	.	4.ee\	.	1ryy	1ryy	1ryy	1ryy	1ryy	1ryy
8E\L	.	8g#\J	.	8b\J	.	.	.	.	.	.	.	.	.	.	.
8G#\	.	8r	.	8r	.	.	.	.	.	.	.	.	.	.	.
8E\J	.	8g#\	.	8b\	.	16ee\LL	.	16ee\LL	.	.	.	.	.	.	.
.	.	.	.	.	.	16dddn\JJ	.	16dddn\JJ	.	.	.	.	.	.	.
*	*	*rep	*	*	*	*	*	*	*	*	*	*	*	*	*
!	!	!	!	!	!	!LO:LB:g=original	!	!	!	!	!	!	!	!	!
8A\L	.	8a\	.	8a\	.	32ddd\KLL	.	32ddd\KLL	.	.	.	.	.	.	.
.	.	.	.	.	.	16.ccc#\JJ	.	16.ccc#\JJ	.	.	.	.	.	.	.
8E#X\	.	4cc#\	.	4cc#\	.	32gg#\KLL	.	32gg#\KLL	.	.	.	.	.	.	.
.	.	.	.	.	.	16.bb\JJ	.	16.bb\JJ	.	.	.	.	.	.	.
8F#\	.	.	.	.	.	32bb\KLL	.	32bb\KLL	.	.	.	.	.	.	.
.	.	.	.	.	.	16.aa\JJ	.	16.aa\JJ	.	.	.	.	.	.	.
8D#X\J	.	8b\	.	8b\	.	32ff#\KLL	.	32ff#\KLL	.	.	.	.	.	.	.
.	.	.	.	.	.	16.aa\JJ	.	16.aa\JJ	.	.	.	.	.	.	.
*	*	*Xrep	*	*	*	*	*	*	*	*	*	*	*	*	*
=14	=14	=14	=14	=14	=14	=14	=14	=14	=14	=14	=14	=14	=14	=14	=14
*	*	*rep	*	*tuplet	*	*	*	*tuplet	*	*	*	*	*	*	*
!LO:TX:a:t=P:problem:mixed beam	!	!	!	!LO:TUP:a	!	!	!	!LO:TX:a:t=P:problem:triola pod klamrą łukową	!	!	!	!	!	!	!
!	!	!	!	!	!	!	!	!LO:TUP:a	!	!	!	!	!	!	!
8E\L	.	24b\LL	.	24b\LL	.	24gg#\LL	.	24gg#\LL	f	1ryy	1ryy	1ryy	1ryy	1ryy	1ryy
.	.	24a\	.	24a\	.	24ff#\	.	24ff#\	.	.	.	.	.	.	.
!	!	!	!	!	!	!LO:TX:a:t=6|	!	!	!	!	!	!	!	!	!
.	.	24b\	.	24b\	.	24gg#\	.	(24gg#\JJ	.	.	.	.	.	.	.
!	!	!	!	!	!	!	!	!LO:TUP:a	!	!	!	!	!	!	!
8AA/J	.	24cc#\	.	24cc#\	.	24aa\	.	24aa\LL)	.	.	.	.	.	.	.
.	.	24b\	.	24b\	.	24gg#\	.	24gg#\	.	.	.	.	.	.	.
.	.	24a\JJ	.	24a\JJ	.	24ff#\JJ	.	24ff#\JJ	.	.	.	.	.	.	.
8BB/L	.	8g#\L	.	8g#\L	.	8ee\L	.	8ee\L	.	.	.	.	.	.	.
8BB/J	.	8f#\J	.	8f#\J	.	8dd#X\J	.	8dd#X\J	.	.	.	.	.	.	.
*	*	*Xrep	*	*	*	*	*	*	*	*	*	*	*	*	*
*	*	*rep	*	*	*	*	*	*	*	*	*	*	*	*	*
8r	.	4f#\	.	4f#\	.	4dd#\	.	(4dd#\	.	.	.	.	.	.	.
!LO:TX:a:t=P:problem:mixed beam	!	!	!	!	!	!	!	!	!	!	!	!	!	!	!
8E\L	.	.	.	.	.	.	.	.	.	.	.	.	.	.	.
8EE/J	.	8g#\	.	8g#\	.	8ee\	.	8ee\)	.	.	.	.	.	.	.
8r	.	8r	.	8r	.	8r	.	8r	.	.	.	.	.	.	.
*	*	*Xrep	*	*	*	*	*	*	*	*	*	*	*	*	*
!	!	!	!	!	!	!	!	!LO:LB:g=original	!	!	!	!	!	!	!
=15	=15	=15	=15	=15	=15	=15	=15	=15	=15	=15	=15	=15	=15	=15	=15
*	*	*rep	*	*	*	*	*	*	*	*	*	*	*	*	*
!	!	!	!	!	!	!LO:TX:a:t=P:problem:p = p	!	!	!	!	!	!	!	!	!
8r	.	4.c#/	.	4.c#/	.	4.A/	p	4.a/	p	1ryy	1ryy	1ryy	1ryy	1ryy	1ryy
8AA/L	.	.	.	.	.	.	.	.	.	.	.	.	.	.	.
8C#/	.	.	.	.	.	.	.	.	.	.	.	.	.	.	.
8AA/J	.	16B/LL	.	16B/LL	.	32d/KLL	.	32dd\KLL	.	.	.	.	.	.	.
.	.	.	.	.	.	16.c#/JJ	.	16.cc#\JJ	.	.	.	.	.	.	.
.	.	16A/JJ	.	16A/JJ	.	.	.	.	.	.	.	.	.	.	.
*	*	*Xrep	*	*	*	*	*	*	*	*	*	*	*	*	*
*	*	*rep	*	*	*	*	*	*	*	*	*	*	*	*	*
4E\	.	16A/LLX	.	16A/LL	.	16c#/LL	.	16cc#\LL	.	.	.	.	.	.	.
.	.	16G#/	.	16G#/	.	16B/	.	16b\	.	.	.	.	.	.	.
!	!	!	!	!LO:SIC:s=F##	!	!	!	!	!	!	!	!	!	!	!
!	!	!	!	!LO:SIC:s=F##	!	!	!	!	!	!	!	!	!	!	!
.	.	16F#/	.	16F#/	.	16A#X/	.	16a#X\	.	.	.	.	.	.	.
.	.	16G#/JJ	.	16G#/JJ	.	16B/JJ	.	16b\JJ	.	.	.	.	.	.	.
*	*	*Xrep	*	*	*	*	*	*	*	*	*	*	*	*	*
8EE/	.	16G#/LL	.	16G#/LL	.	8B/	.	8b\	.	.	.	.	.	.	.
.	.	32G#/L	.	32B/L	.	.	.	.	.	.	.	.	.	.	.
.	.	32A/J	.	32c#/J	.	.	.	.	.	.	.	.	.	.	.
8r	.	16B/	.	16d/	.	8r	.	8r	.	.	.	.	.	.	.
.	.	16A/JJ	.	16c#/JJ	.	.	.	.	.	.	.	.	.	.	.
!LO:LB:g=original	!	!	!	!	!	!	!	!	!	!	!	!	!	!	!
=16	=16	=16	=16	=16	=16	=16	=16	=16	=16	=16	=16	=16	=16	=16	=16
8r	.	4.G#/	.	4.B/	.	4.B/	.	4.b\	.	1ryy	1ryy	1ryy	1ryy	1ryy	1ryy
8E\L	.	.	.	.	.	.	.	.	.	.	.	.	.	.	.
8G#\	.	.	.	.	.	.	.	.	.	.	.	.	.	.	.
8E\J	.	16c#/LL	.	16c#/LL	.	32e/KLL	.	(32ee\KLL	.	.	.	.	.	.	.
.	.	.	.	.	.	16.d/JJ	.	16.dd\JJ)	.	.	.	.	.	.	.
.	.	16B/JJ	.	16B/JJ	.	.	.	.	.	.	.	.	.	.	.
!	!	!LO:LB:g=original	!	!LO:LB:g=original	!	!LO:LB:g=original	!	!	!	!	!	!	!	!	!
4A\	.	16B/LL	.	16B/LL	.	16d/LL	.	16dd\LL	.	.	.	.	.	.	.
.	.	16A/	.	16A/	.	16c#/	.	(16cc#\	.	.	.	.	.	.	.
.	.	16G#/	.	16G#/	.	16B#X/	.	16b#X\)	.	.	.	.	.	.	.
.	.	16A/JJ	.	16A/JJ	.	16c#/JJ	.	16cc#\JJ	.	.	.	.	.	.	.
8AA/	.	16A/LL	.	16A/LL	.	8c#/	.	8cc#\	.	.	.	.	.	.	.
.	.	32A/L	.	32c#/L	.	.	.	.	.	.	.	.	.	.	.
.	.	32B/J	.	32d/J	.	.	.	.	.	.	.	.	.	.	.
8r	.	16c#/	.	16e/	.	8r	.	8r	.	.	.	.	.	.	.
.	.	16B/JJ	.	16d/JJ	.	.	.	.	.	.	.	.	.	.	.
=17	=17	=17	=17	=17	=17	=17	=17	=17	=17	=17	=17	=17	=17	=17	=17
(8c#\L	.	8A/L	.	8c#\L	.	8.e/L	.	8.ee\L	.	1ryy	1ryy	1ryy	1ryy	1ryy	1ryy
8A\J)	.	8c#/J	.	8a\J	.	.	.	.	.	.	.	.	.	.	.
.	.	.	.	.	.	(32f#/LL	.	(32ff#\LL	.	.	.	.	.	.	.
.	.	.	.	.	.	32g#/JJJ)	.	32gg#\JJJ)	.	.	.	.	.	.	.
8r	.	8r	.	8r	.	16a/LL	.	(16aa\LL	.	.	.	.	.	.	.
.	.	.	.	.	.	(16e/	.	16ee\)	.	.	.	.	.	.	.
8d\	.	16d\LL	.	8a\	.	16f#/)	.	16ff#`\	.	.	.	.	.	.	.
.	.	16f#\JJ	.	.	.	16d/JJ	.	16dd\JJ	.	.	.	.	.	.	.
(8c#\L	.	8e\L	.	8a\L	.	8.e/L	.	8.ee\L	.	.	.	.	.	.	.
8A\J)	.	8c#\J	.	8a\J	.	.	.	.	.	.	.	.	.	.	.
.	.	.	.	.	.	(32f#/LL	.	(32ff#\LL	.	.	.	.	.	.	.
.	.	.	.	.	.	32g#/JJJ)	.	32gg#\JJJ)	.	.	.	.	.	.	.
8r	.	8r	.	8r	.	16a/LL	.	(16aa\LL	.	.	.	.	.	.	.
.	.	.	.	.	.	(16e/	.	16ee\)	.	.	.	.	.	.	.
8d\	.	16d\LL	.	8a\	.	16f#/)	.	16ff#`\	.	.	.	.	.	.	.
.	.	16f#\JJ	.	.	.	16d/JJ	.	16dd`\JJ	.	.	.	.	.	.	.
=18	=18	=18	=18	=18	=18	=18	=18	=18	=18	=18	=18	=18	=18	=18	=18
4c#\	.	16e\LL	.	16a\LL	.	16e/LL	.	16ee`\LL	.	1ryy	1ryy	1ryy	1ryy	1ryy	1ryy
.	.	16a\	.	16a\	.	16c#/	.	(16cc#\	.	.	.	.	.	.	.
.	.	16g#\	.	16g#\	.	16B/	.	16b\)	.	.	.	.	.	.	.
.	.	16a\JJ	.	16a\JJ	.	16A/JJ	.	16a\JJ	.	.	.	.	.	.	.
8G#`\L	.	8b\L	.	8b\L	.	8.d/L	.	8dd`\L	.	.	.	.	.	.	.
8A`\J	.	16.a\L	.	16.a\L	.	.	.	(16.cc#\L	.	.	.	.	.	.	.
.	.	.	.	.	.	32c#/LL	.	.	.	.	.	.	.	.	.
.	.	32b\JJk	.	32b\JJk	.	32d/JJJ	.	32dd\JJk)	.	.	.	.	.	.	.
!	!	!	!	!	!	!	!	!LO:LB:g=original	!	!	!	!	!	!	!
8r	.	4a\	.	4a\	.	4c#/	.	(4cc#\	.	.	.	.	.	.	.
!LO:TX:a:t=P:problem:mixed beam	!	!	!	!	!	!	!	!	!	!	!	!	!	!	!
8E\L	.	.	.	.	.	.	.	.	.	.	.	.	.	.	.
8EE/J	.	8g#\	.	8g#\	.	8B/	.	8b\)	.	.	.	.	.	.	.
8r	.	8r	.	8r	.	8r	.	8r	.	.	.	.	.	.	.
=19	=19	=19	=19	=19	=19	=19	=19	=19	=19	=19	=19	=19	=19	=19	=19
8r	.	4.c#/	.	4.c#/	.	4.A/	.	4.a/	p	1ryy	1ryy	1ryy	1ryy	1ryy	1ryy
8AA/L	.	.	.	.	.	.	.	.	.	.	.	.	.	.	.
8C#/	.	.	.	.	.	.	.	.	.	.	.	.	.	.	.
8AA/J	.	16B/LL	.	16B/LL	.	(16d/LL	.	16dd\LL	.	.	.	.	.	.	.
.	.	16A/JJ	.	16A/JJ	.	16c#/JJ)	.	16cc#\JJ	.	.	.	.	.	.	.
!LO:TX:a:t=P:problem:mixed beam	!	!	!	!	!	!LO:LB:g=original	!	!	!	!	!	!	!	!	!
8E\L	.	16A/LL	.	16A/LL	.	16c#/LL	.	16cc#\LL	.	.	.	.	.	.	.
.	.	16G#/	.	16G#/	.	16B/	.	16b\	.	.	.	.	.	.	.
!	!	!	!	!LO:SIC:s=F##	!	!	!	!	!	!	!	!	!	!	!
!	!	!	!	!LO:SIC:s=F##	!	!	!	!	!	!	!	!	!	!	!
8EE/	.	16F#/	.	16F#/	.	16A#X/	.	16a#X\	.	.	.	.	.	.	.
.	.	16G#/JJ	.	16G#/JJ	.	16B/JJ	.	16b\JJ	.	.	.	.	.	.	.
8EE/J	.	16G#/LL	.	16G#/LL	.	8B/	.	8b\	.	.	.	.	.	.	.
.	.	32G#/L	.	32B/L	.	.	.	.	.	.	.	.	.	.	.
.	.	32A/J	.	32c#/J	.	.	.	.	.	.	.	.	.	.	.
8r	.	16B/	.	16d/	.	8r	.	8r	.	.	.	.	.	.	.
.	.	16A/JJ	.	16c#/JJ	.	.	.	.	.	.	.	.	.	.	.
=20	=20	=20	=20	=20	=20	=20	=20	=20	=20	=20	=20	=20	=20	=20	=20
8r	.	4.G#/	.	4.B/	.	4.B/	.	4.b\	.	1ryy	1ryy	1ryy	1ryy	1ryy	1ryy
8E\L	.	.	.	.	.	.	.	.	.	.	.	.	.	.	.
8F#\	.	.	.	.	.	.	.	.	.	.	.	.	.	.	.
8E\J	.	16c#/LL	.	16c#/LL	.	16e/LL	.	(16.ee\LL	.	.	.	.	.	.	.
.	.	16B/JJ	.	16B/JJ	.	16d/JJ	.	.	.	.	.	.	.	.	.
.	.	.	.	.	.	.	.	32dd\JJk)	.	.	.	.	.	.	.
!LO:TX:a:t=P:problem:mixed beam	!	!	!	!	!	!	!	!	!	!	!	!	!	!	!
8A\L	.	16B/LL	.	16B/LL	.	16d/LL	.	16dd\LL	.	.	.	.	.	.	.
.	.	16A/	.	16A/	.	16c#/	.	(16cc#\	.	.	.	.	.	.	.
8AA/	.	16G#/	.	16G#/	.	16B#X/	.	16b#X\)	.	.	.	.	.	.	.
.	.	16A/JJ	.	16A/JJ	.	16c#/JJ	.	16cc#\JJ	.	.	.	.	.	.	.
8AA/J	.	16A/LL	.	16A/LL	.	8c#/	.	8cc#\	.	.	.	.	.	.	.
.	.	32A/L	.	32c#/L	.	.	.	.	.	.	.	.	.	.	.
.	.	32B/J	.	32d/J	.	.	.	.	.	.	.	.	.	.	.
8r	.	16c#/	.	16e/	.	8r	.	8r	.	.	.	.	.	.	.
.	.	16B/JJ	.	16d/JJ	.	.	.	.	.	.	.	.	.	.	.
!LO:PB:g=original	!	!LO:LB:g=original	!	!LO:LB:g=original	!	!	!	!	!	!	!	!	!	!	!
=21	=21	=21	=21	=21	=21	=21	=21	=21	=21	=21	=21	=21	=21	=21	=21
8c#\L	.	8A/L	.	8c#\L	.	8.e/L	.	8.ee\L	.	1ryy	1ryy	1ryy	1ryy	1ryy	1ryy
8A\J	.	8A/J	.	8e\J	.	.	.	.	.	.	.	.	.	.	.
.	.	.	.	.	.	32f#/LL	.	(32ff#\LL	.	.	.	.	.	.	.
.	.	.	.	.	.	32g#/JJJ	.	32gg#\JJJ)	.	.	.	.	.	.	.
8r	.	8r	.	16r	.	16a/LL	.	(16aa\LL	.	.	.	.	.	.	.
.	.	.	.	16c\LL	.	16e/	.	16ee\)	.	.	.	.	.	.	.
8d\	.	8A/	.	16d\	.	16f#/	.	16ff#'\	.	.	.	.	.	.	.
.	.	.	.	16f#\JJ	.	16d/JJ	.	16dd'\JJ	.	.	.	.	.	.	.
!	!	!	!	!	!	!	!	!LO:TX:t=P:problem:nieprecyzyjny zapis łuku	!	!	!	!	!	!	!
8c#\L	.	8A/L	.	8e\L	.	8.e/L	.	(8.ee\L	.	.	.	.	.	.	.
8A\J	.	8A/J	.	8c#\J	.	.	.	.	.	.	.	.	.	.	.
.	.	.	.	.	.	32f#/LL	.	32ff#\LL	.	.	.	.	.	.	.
.	.	.	.	.	.	32g#/JJJ	.	32gg#\JJJ)	.	.	.	.	.	.	.
8r	.	8r	.	16r	.	16a/LL	.	16aa\LL	.	.	.	.	.	.	.
.	.	.	.	16c\LL	.	16e/	.	(16ee\	.	.	.	.	.	.	.
8d\	.	8A/	.	16d\	.	16f#/	.	16ff#\)	.	.	.	.	.	.	.
.	.	.	.	16f#\JJ	.	16d/JJ	.	16dd\JJ	.	.	.	.	.	.	.
!	!	!	!	!	!	!	!	!LO:LB:g=original	!	!	!	!	!	!	!
=22	=22	=22	=22	=22	=22	=22	=22	=22	=22	=22	=22	=22	=22	=22	=22
!LO:TX:a:t=P:problem:mixed beam	!	!	!	!	!	!	!	!	!	!	!	!	!	!	!
8c#\L	.	8A/L	.	8e\L	.	32d/KLL	.	32ee\KLL	.	1ryy	1ryy	1ryy	1ryy	1ryy	1ryy
.	.	.	.	.	.	16.a/JJ	.	16.aa\JJ	.	.	.	.	.	.	.
!	!	!	!	!	!	!LO:TX:t=P:problem:dorysowane dwie dolne linie taktowe przy końcu strony	!	!	!	!	!	!	!	!	!
8d\	.	16.d/L	.	16.d\L	.	32f#/KLL	.	32b\KLL	.	.	.	.	.	.	.
.	.	.	.	.	.	16.b/JJ	.	16.dd\JJ	.	.	.	.	.	.	.
.	.	32f#/JJk	.	32f#\JJk	.	.	.	.	.	.	.	.	.	.	.
8e\	.	8e\L	.	8e\L	.	8a/L	.	8cc#\L	.	.	.	.	.	.	.
8E/J	.	8d\J	.	8d\J	.	8g#/J	.	8b\J	.	.	.	.	.	.	.
4A\	.	4c#\	f	4c#\	f	4a/	.	4a/	.	.	.	.	.	.	.
!	!	!	!	!	!	!LO:LB:g=original	!	!	!	!	!	!	!	!	!
4r	.	16.a\LL	.	16.cc#\LL	.	(16.aa\LL	.	(16.ccc#\LL	.	.	.	.	.	.	.
.	.	32g#\K	.	32b\K	.	32gg#\K)	.	32bb\K)	.	.	.	.	.	.	.
.	.	16.f#\	.	16.a\	.	16.ff#`\	.	16.aa\	.	.	.	.	.	.	.
.	.	32e#X\JJk	.	32g#\JJk	.	32ee#X`\JJk	.	32gg#X\JJk	.	.	.	.	.	.	.
=23	=23	=23	=23	=23	=23	=23	=23	=23	=23	=23	=23	=23	=23	=23	=23
2r	.	16.f#\LL	.	16.a\LL	.	(16.ff#\LL	.	16.aa\LL	.	1ryy	1ryy	1ryy	1ryy	1ryy	1ryy
.	.	32en\K	.	32g#\K	.	32een\K)	.	(32gg#\K	.	.	.	.	.	.	.
.	.	16.d\	.	16.f#\	.	16.dd`\	.	16.ff#\)	.	.	.	.	.	.	.
.	.	32c#\JJk	.	32e#X\JJk	.	32cc#`\JJk	.	32ee#X\JJk	.	.	.	.	.	.	.
.	.	16.d\LL	.	16.f#\LL	.	(16.dd\LL	.	16.ff#\LL	.	.	.	.	.	.	.
.	.	32c#\K	.	32en\K	.	32cc#\K)	.	(32een\K	.	.	.	.	.	.	.
.	.	16.B\	.	16.d\	.	16.b`\	.	16.dd\)	.	.	.	.	.	.	.
.	.	32A\JJk	.	32c#\JJk	.	32a`\JJk	.	32cc#\JJk	.	.	.	.	.	.	.
4r	.	8G#/	.	8B/	.	8g#/	.	8b\	.	.	.	.	.	.	.
.	.	8r	.	8r	.	8r	.	8r	.	.	.	.	.	.	.
!	!	!	!	!LO:N:vis=8.	!	!	!	!	!	!	!	!	!	!	!
!LO:N:vis=8.	!	!	!	!LO:N:vis=8.	!	!	!	!	!	!	!	!	!	!	!
16.r	.	16.r	.	16.r	.	4e/ 4b	.	4dd\	f	.	.	.	.	.	.
32E\KLL	.	32e\KLL	.	32e\KLL	.	.	.	.	.	.	.	.	.	.	.
16.G#\	.	16.e\	.	16.g#\	.	.	.	.	.	.	.	.	.	.	.
32E\JJk	.	32e\JJk	.	32e\JJk	.	.	.	.	.	.	.	.	.	.	.
=24	=24	=24	=24	=24	=24	=24	=24	=24	=24	=24	=24	=24	=24	=24	=24
!LO:TX:a:t=P:problem:mixed beam	!	!	!	!	!	!	!	!	!	!	!	!	!	!	!
8A\L	.	8e\L	.	8a\L	.	32a\KLL	.	32cc#\KLL	.	1ryy	1ryy	1ryy	1ryy	1ryy	1ryy
.	.	.	.	.	.	16.cc#\JJ	.	16.aa\JJ	.	.	.	.	.	.	.
8D\	.	8f#\	.	8f#\	.	32dd\KLL	.	32b\KLL	.	.	.	.	.	.	.
.	.	.	.	.	.	16.b\JJ	.	16.dd\JJ	.	.	.	.	.	.	.
8E\	.	8e\	.	8e\	.	8a/L	.	(8cc#\L	.	.	.	.	.	.	.
8EE/J	.	8e\J	.	8e\J	.	8g#/J	.	8b\J)	.	.	.	.	.	.	.
.	.	.	.	.	.	.	.	8qqb/	.	.	.	.	.	.	.
4AA/	.	4A/	.	4e\	.	4a/	.	4cc#\	.	.	.	.	.	.	.
4r	.	32a\LLL	.	32cc#\LLL	.	32aa\LLL	.	32ccc#\LLL	.	.	.	.	.	.	.
.	.	(32b\	.	(32dd\	.	32bb\	.	(32ddd\	.	.	.	.	.	.	.
.	.	32a\)	.	32cc#\)	.	(32aa\	.	32ccc#\	.	.	.	.	.	.	.
.	.	32g#\J	.	32b\J	.	32gg#\J)	.	32bb\J)	.	.	.	.	.	.	.
!	!	!	!	!	!	!	!	!LO:N:vis=16	!	!	!	!	!	!	!
.	.	16f#\	.	16a\	.	16.ff#\	.	16.aa\	.	.	.	.	.	.	.
.	.	16e#X\JJ	.	16g#X\JJ	.	.	.	.	.	.	.	.	.	.	.
.	.	.	.	.	.	32ee#X\JJk	.	32gg#\JJk	.	.	.	.	.	.	.
!	!	!LO:LB:g=original	!	!LO:LB:g=original	!	!	!	!LO:LB:g=original	!	!	!	!	!	!	!
=25	=25	=25	=25	=25	=25	=25	=25	=25	=25	=25	=25	=25	=25	=25	=25
2r	.	32f#\LLL	.	32a\LLL	.	32ff#\LLL	.	32aa\LLL	.	1ryy	1ryy	1ryy	1ryy	1ryy	1ryy
.	.	(32g#\	.	(32b\	.	32gg#\	.	32bb\	.	.	.	.	.	.	.
.	.	32f#\)	.	32a\)	.	(32ff#\	.	32aa\	.	.	.	.	.	.	.
.	.	32e\J	.	32g#\J	.	32ee\J)	.	32gg#\J	.	.	.	.	.	.	.
!	!	!	!	!	!	!	!	!LO:N:vis=16	!	!	!	!	!	!	!
.	.	16d\	.	16f#\	.	16.dd\	.	16.ff#\	.	.	.	.	.	.	.
.	.	16c#\JJ	.	16e#X\JJ	.	.	.	.	.	.	.	.	.	.	.
.	.	.	.	.	.	32cc#\JJk	.	32ee#X\JJk	.	.	.	.	.	.	.
!	!	!	!	!	!	!LO:LB:g=original	!	!	!	!	!	!	!	!	!
.	.	32d\LLL	.	32f#\LLL	.	32dd\LLL	.	32ff#\LLL	.	.	.	.	.	.	.
.	.	(32e\	.	(32g#\	.	32ee\	.	32gg#\	.	.	.	.	.	.	.
.	.	32d\)	.	32f#\)	.	(32dd\	.	32ff#\	.	.	.	.	.	.	.
!	!	!	!	!LO:SIC:s=en	!	!	!	!	!	!	!	!	!	!	!
.	.	32c#\J	.	32e#\J	.	32cc#\J)	.	32een\J	.	.	.	.	.	.	.
!	!	!	!	!	!	!	!	!LO:N:vis=16	!	!	!	!	!	!	!
.	.	16B\	.	16d\	.	16.b\	.	16.dd\	.	.	.	.	.	.	.
.	.	16A\JJ	.	16c#\JJ	.	.	.	.	.	.	.	.	.	.	.
.	.	.	.	.	.	32a\JJk	.	32cc#\JJk	.	.	.	.	.	.	.
4r	.	8G#/	.	8B/	.	8g#/	.	8b\	.	.	.	.	.	.	.
.	.	8r	.	8r	.	8r	.	8r	.	.	.	.	.	.	.
!	!	!	!	!LO:N:vis=8.	!	!	!	!	!	!	!	!	!	!	!
!LO:N:vis=8.	!	!	!	!LO:N:vis=8.	!	!LO:N:vis=8	!	!	!	!	!	!	!	!	!
16.r	.	16.r	.	16.r	.	4e/ 4b	f	4e/ 4dd	.	.	.	.	.	.	.
32B\KLL	.	32e\KLL	.	32g#\KLL	.	.	.	.	.	.	.	.	.	.	.
16.G#\	.	16.e\	.	16.b\	.	.	.	.	.	.	.	.	.	.	.
32E\JJk	.	32e\JJk	.	32g#\JJk	.	.	.	.	.	.	.	.	.	.	.
=26	=26	=26	=26	=26	=26	=26	=26	=26	=26	=26	=26	=26	=26	=26	=26
!LO:TX:a:t=P:problem:mixed beam	!	!	!	!	!	!	!	!	!	!	!	!	!	!	!
8A\L	.	8e\L	.	8a\L	.	32a\KLL	.	32cc#\KLL	.	1ryy	1ryy	1ryy	1ryy	1ryy	1ryy
.	.	.	.	.	.	16.cc#\JJ	.	16.aa\JJ	.	.	.	.	.	.	.
8D\	.	8f#\	.	8f#\	.	32dd\KLL	.	32b\KLL	.	.	.	.	.	.	.
.	.	.	.	.	.	16.b\JJ	.	16.dd\JJ	.	.	.	.	.	.	.
8E\	.	8e\	.	8e\	.	8a/L	.	8cc#\L	.	.	.	.	.	.	.
!	!	!	!	!LO:TX:a:t=d	!	!	!	!	!	!	!	!	!	!	!
8EE/J	.	8d\J	.	8e\J	.	8g#/J	.	8b\J	.	.	.	.	.	.	.
*	*	*rep	*	*	*	*	*	*	*	*	*	*	*	*	*
!LO:LB:g=original	!	!	!	!LO:DY:=pian	!	!	!	!	!	!	!	!	!	!	!
8r	.	4c#\	.	4c#\	p	4.a/	p	4.a/	p	.	.	.	.	.	.
8AA/L	p	.	.	.	.	.	.	.	.	.	.	.	.	.	.
8C#/	.	8e\L	.	8e\L	.	.	.	.	.	.	.	.	.	.	.
8AA/J	.	8e\J	.	8e\J	.	16b/LL	.	32dd\KLL	.	.	.	.	.	.	.
.	.	.	.	.	.	.	.	16.cc#\JJ	.	.	.	.	.	.	.
.	.	.	.	.	.	16a/JJ	.	.	.	.	.	.	.	.	.
*	*	*Xrep	*	*	*	*	*	*	*	*	*	*	*	*	*
=27	=27	=27	=27	=27	=27	=27	=27	=27	=27	=27	=27	=27	=27	=27	=27
*	*	*rep	*	*	*	*	*	*	*	*	*	*	*	*	*
!LO:TX:a:t=P:problem:mixed beam	!	!	!	!	!	!	!	!	!	!	!	!	!	!	!
8E\L	.	4e\	.	4e\	.	16a/LL	.	16cc#\LL	.	1ryy	1ryy	1ryy	1ryy	1ryy	1ryy
!	!	!	!	!	!	!LO:TX:t=P:problem:nieprecyzyjny zapis łuku	!	!	!	!	!	!	!	!	!
.	.	.	.	.	.	(16g#/	.	(16b\	.	.	.	.	.	.	.
8EE/	.	.	.	.	.	16f#/)	.	16a#X\)	.	.	.	.	.	.	.
.	.	.	.	.	.	16g#/JJ	.	16b\JJ	.	.	.	.	.	.	.
8EE/J	.	8e\	.	8e\	.	8g#/	.	8b\	.	.	.	.	.	.	.
8r	.	8r	.	8r	.	8r	.	8r	.	.	.	.	.	.	.
*	*	*Xrep	*	*	*	*	*	*	*	*	*	*	*	*	*
*	*	*rep	*	*	*	*	*	*	*	*	*	*	*	*	*
8r	.	8r	.	8r	.	4.g#/	.	4.b\	.	.	.	.	.	.	.
8E\L	.	4e\	.	4e\	.	.	.	.	.	.	.	.	.	.	.
8G#\	.	.	.	.	.	.	.	.	.	.	.	.	.	.	.
8E\J	.	8e\	.	8e\	.	16cc#/LL	.	(32ee\KLL	.	.	.	.	.	.	.
.	.	.	.	.	.	.	.	16.dd\JJ)	.	.	.	.	.	.	.
.	.	.	.	.	.	16b/JJ	.	.	.	.	.	.	.	.	.
*	*	*Xrep	*	*	*	*	*	*	*	*	*	*	*	*	*
!	!	!	!	!	!	!	!	!LO:LB:g=original	!	!	!	!	!	!	!
=28	=28	=28	=28	=28	=28	=28	=28	=28	=28	=28	=28	=28	=28	=28	=28
*	*	*rep	*	*	*	*	*	*	*	*	*	*	*	*	*
!LO:TX:a:t=P:problem:mixed beam	!	!	!	!	!	!	!	!	!	!LO:TX:b:t=Allo Sequi(tur)	!LO:TX:b:t=Preſto Sequi(tur)	!LO:TX:b:t=Preſto Sequi(tur)	!LO:TX:b:t=Preſto Sequi(tur)	!LO:TX:b:t=Allo Sequi(tur)	!LO:TX:b:t=Presto Sequi(tur)
8A\L	.	4e\	.	4e\	.	16b/LL	.	16dd\LL	.	1ryy	1ryy	1ryy	1ryy	1ryy	1ryy
.	.	.	.	.	.	(16a/	.	16cc#\	.	.	.	.	.	.	.
!	!	!	!	!	!	!LO:TX:t=P:problem:nieprecyzyjny zapis łuku	!	!	!	!	!	!	!	!	!
8AA/	.	.	.	.	.	16g#/)	.	16b\	.	.	.	.	.	.	.
.	.	.	.	.	.	16a/JJ	.	16cc#\JJ	.	.	.	.	.	.	.
8AA/J	.	8e\	.	8e\	.	8a/	.	8cc#\	.	.	.	.	.	.	.
*	*	*Xrep	*	*	*	*	*	*	*	*	*	*	*	*	*
8r	.	8r	.	8r	.	8r	.	8r	.	.	.	.	.	.	.
!	!	!LO:TX:b:t=Presto Verte	!	!	!	!LO:TX:b:t=Preſto Sequi	!	!LO:TX:b:t=Presto Verte	!	!	!	!	!	!	!
2r	.	2r	.	2r	.	2r	.	2r	.	.	.	.	.	.	.
==	==	==	==	==	==	==	==	==	==	==	==	==	==	==	==
*-	*-	*-	*-	*-	*-	*-	*-	*-	*-	*-	*-	*-	*-	*-	*-
!!!system-decoration: [(g1)][(g2)][(g3[({(g3)})])]g4
!!!RDF**dynam: f=for
!!!RDF**dynam: p=pia
!!!ENC:Anna Matuszewska
!!!END:2020-10-17
!!!ENC: Krzysztof Stępień
!!!END: 2020-05-22
